svg/aws-ec2-r6g.svg

<?xml version="1.0" encoding="UTF-8"?>
<svg xmlns="http://www.w3.org/2000/svg" xmlns:xlink="http://www.w3.org/1999/xlink" width="32" height="32" viewBox="0 0 32 32">
<path fill-rule="evenodd" fill="rgb(83.137255%, 35.686275%, 2.745098%)" fill-opacity="1" d="M 20.675781 14.632812 C 20.859375 14.382812 21.140625 14.257812 21.519531 14.257812 C 21.886719 14.257812 22.234375 14.371094 22.554688 14.59375 L 22.554688 16.984375 C 22.257812 17.214844 21.890625 17.34375 21.511719 17.347656 C 20.769531 17.347656 20.402344 16.824219 20.402344 15.78125 C 20.402344 15.265625 20.492188 14.882812 20.675781 14.632812 M 21.183594 18.199219 C 21.695312 18.199219 22.152344 18.023438 22.554688 17.675781 L 22.554688 18.078125 C 22.554688 18.5625 22.449219 18.914062 22.238281 19.125 C 22.027344 19.339844 21.6875 19.449219 21.222656 19.449219 C 20.761719 19.449219 20.242188 19.351562 19.664062 19.160156 L 19.664062 19.945312 C 20.171875 20.199219 20.730469 20.328125 21.296875 20.324219 C 22.050781 20.324219 22.632812 20.121094 23.042969 19.710938 C 23.453125 19.300781 23.660156 18.71875 23.660156 17.964844 L 23.660156 13.539062 L 22.722656 13.539062 L 22.632812 13.96875 C 22.257812 13.597656 21.75 13.394531 21.222656 13.402344 C 20.855469 13.394531 20.492188 13.5 20.1875 13.707031 C 19.886719 13.921875 19.652344 14.21875 19.515625 14.5625 C 19.351562 14.960938 19.273438 15.386719 19.28125 15.816406 C 19.28125 16.539062 19.453125 17.117188 19.800781 17.550781 C 20.144531 17.980469 20.605469 18.199219 21.183594 18.199219 M 16.179688 15.230469 C 16.550781 15.230469 16.835938 15.328125 17.027344 15.523438 C 17.222656 15.71875 17.320312 16.003906 17.320312 16.378906 C 17.320312 16.746094 17.226562 17.03125 17.039062 17.238281 C 16.851562 17.441406 16.585938 17.542969 16.253906 17.542969 C 15.433594 17.542969 15 16.882812 14.960938 15.558594 C 15.371094 15.339844 15.78125 15.230469 16.179688 15.230469 M 16.171875 18.429688 C 16.632812 18.429688 17.035156 18.339844 17.382812 18.15625 C 17.726562 17.972656 17.992188 17.722656 18.175781 17.398438 C 18.359375 17.078125 18.449219 16.714844 18.449219 16.304688 C 18.449219 15.71875 18.273438 15.25 17.921875 14.898438 C 17.574219 14.546875 17.109375 14.371094 16.527344 14.371094 C 15.976562 14.371094 15.453125 14.53125 14.960938 14.847656 C 14.992188 14.070312 15.144531 13.496094 15.421875 13.121094 C 15.695312 12.746094 16.113281 12.5625 16.675781 12.5625 C 17.132812 12.570312 17.589844 12.652344 18.019531 12.8125 L 18.019531 12 C 17.800781 11.890625 17.566406 11.808594 17.324219 11.761719 C 17.058594 11.703125 16.789062 11.675781 16.519531 11.675781 C 15.664062 11.675781 15.003906 11.992188 14.535156 12.625 C 14.066406 13.261719 13.828125 14.152344 13.828125 15.296875 C 13.828125 16.328125 14.027344 17.109375 14.421875 17.636719 C 14.816406 18.167969 15.402344 18.429688 16.171875 18.429688 M 9.480469 12.699219 L 10.640625 12.699219 C 11.347656 12.699219 11.703125 13.058594 11.703125 13.773438 C 11.703125 14.488281 11.339844 14.847656 10.613281 14.847656 L 9.480469 14.847656 Z M 9.480469 15.726562 L 10.617188 15.726562 L 12.132812 18.292969 L 13.269531 18.292969 L 11.601562 15.527344 C 12.011719 15.367188 12.324219 15.132812 12.539062 14.828125 C 12.757812 14.507812 12.867188 14.125 12.859375 13.738281 C 12.859375 13.152344 12.667969 12.6875 12.285156 12.339844 C 11.902344 11.996094 11.394531 11.824219 10.757812 11.824219 L 8.34375 11.824219 L 8.34375 18.292969 L 9.480469 18.292969 Z M 6 26 L 26 26 L 26 6 L 6 6 Z M 30.667969 8.667969 L 30.667969 7.332031 L 27.332031 7.332031 L 27.332031 5.332031 C 27.332031 4.964844 27.035156 4.667969 26.667969 4.667969 L 24.667969 4.667969 L 24.667969 1.332031 L 23.332031 1.332031 L 23.332031 4.667969 L 20.667969 4.667969 L 20.667969 1.332031 L 19.332031 1.332031 L 19.332031 4.667969 L 16.667969 4.667969 L 16.667969 1.332031 L 15.332031 1.332031 L 15.332031 4.667969 L 12.667969 4.667969 L 12.667969 1.332031 L 11.332031 1.332031 L 11.332031 4.667969 L 8.667969 4.667969 L 8.667969 1.332031 L 7.332031 1.332031 L 7.332031 4.667969 L 5.332031 4.667969 C 4.964844 4.667969 4.667969 4.964844 4.667969 5.332031 L 4.667969 7.332031 L 1.332031 7.332031 L 1.332031 8.667969 L 4.667969 8.667969 L 4.667969 11.332031 L 1.332031 11.332031 L 1.332031 12.667969 L 4.667969 12.667969 L 4.667969 15.332031 L 1.332031 15.332031 L 1.332031 16.667969 L 4.667969 16.667969 L 4.667969 19.332031 L 1.332031 19.332031 L 1.332031 20.667969 L 4.667969 20.667969 L 4.667969 23.332031 L 1.332031 23.332031 L 1.332031 24.667969 L 4.667969 24.667969 L 4.667969 26.667969 C 4.667969 27.035156 4.964844 27.332031 5.332031 27.332031 L 7.332031 27.332031 L 7.332031 30.667969 L 8.667969 30.667969 L 8.667969 27.332031 L 11.332031 27.332031 L 11.332031 30.667969 L 12.667969 30.667969 L 12.667969 27.332031 L 15.332031 27.332031 L 15.332031 30.667969 L 16.667969 30.667969 L 16.667969 27.332031 L 19.332031 27.332031 L 19.332031 30.667969 L 20.667969 30.667969 L 20.667969 27.332031 L 23.332031 27.332031 L 23.332031 30.667969 L 24.667969 30.667969 L 24.667969 27.332031 L 26.667969 27.332031 C 27.035156 27.332031 27.332031 27.035156 27.332031 26.667969 L 27.332031 24.667969 L 30.667969 24.667969 L 30.667969 23.332031 L 27.332031 23.332031 L 27.332031 20.667969 L 30.667969 20.667969 L 30.667969 19.332031 L 27.332031 19.332031 L 27.332031 16.667969 L 30.667969 16.667969 L 30.667969 15.332031 L 27.332031 15.332031 L 27.332031 12.667969 L 30.667969 12.667969 L 30.667969 11.332031 L 27.332031 11.332031 L 27.332031 8.667969 Z M 30.667969 8.667969 "/>
</svg>

<svg role="img" viewBox="0 0 32 32" height="32" width="32" xmlns="http://www.w3.org/2000/svg"><path d="M20.676 14.633c.183-.25.465-.375.844-.375.367 0 .714.113 1.035.336v2.39c-.297.23-.664.36-1.043.364-.742 0-1.11-.524-1.11-1.567 0-.515.09-.898.274-1.148m.508 3.566c.511 0 .968-.176 1.37-.523v.402c0 .485-.105.836-.316 1.047-.21.215-.55.324-1.015.324-.461 0-.98-.097-1.559-.289v.785a3.592 3.592 0 0 0 1.633.38c.754 0 1.336-.204 1.746-.614.41-.41.617-.992.617-1.746v-4.426h-.937l-.09.43a1.962 1.962 0 0 0-1.41-.567 1.76 1.76 0 0 0-1.035.305 1.93 1.93 0 0 0-.672.855 3.138 3.138 0 0 0-.235 1.254c0 .723.172 1.301.52 1.735.344.43.804.648 1.383.648M16.18 15.23c.37 0 .656.098.847.293.196.196.293.48.293.856 0 .367-.093.652-.28.86-.188.202-.454.304-.786.304-.82 0-1.254-.66-1.293-1.984.41-.22.82-.329 1.219-.329m-.008 3.2c.46 0 .863-.09 1.21-.274.345-.183.61-.433.794-.758.183-.32.273-.683.273-1.093 0-.586-.176-1.055-.527-1.407-.348-.351-.813-.527-1.395-.527-.55 0-1.074.16-1.566.477.031-.778.184-1.352.46-1.727.274-.375.692-.559 1.255-.559a4.025 4.025 0 0 1 1.343.251V12a2.763 2.763 0 0 0-.695-.238 3.731 3.731 0 0 0-.804-.086c-.856 0-1.516.316-1.985.949-.469.637-.707 1.527-.707 2.672 0 1.031.2 1.812.594 2.34.394.531.98.793 1.75.793M9.48 12.7h1.16c.708 0 1.063.359 1.063 1.073 0 .715-.363 1.075-1.09 1.075H9.48Zm0 3.027h1.137l1.516 2.566h1.137l-1.668-2.766c.41-.16.722-.394.937-.699a1.87 1.87 0 0 0 .32-1.09c0-.586-.191-1.05-.574-1.398-.383-.344-.89-.516-1.527-.516H8.344v6.469H9.48ZM6 26h20V6H6ZM30.668 8.668V7.332h-3.336v-2a.664.664 0 0 0-.664-.664h-2V1.332h-1.336v3.336h-2.664V1.332h-1.336v3.336h-2.664V1.332h-1.336v3.336h-2.664V1.332h-1.336v3.336H8.668V1.332H7.332v3.336h-2a.664.664 0 0 0-.664.664v2H1.332v1.336h3.336v2.664H1.332v1.336h3.336v2.664H1.332v1.336h3.336v2.664H1.332v1.336h3.336v2.664H1.332v1.336h3.336v2c0 .367.297.664.664.664h2v3.336h1.336v-3.336h2.664v3.336h1.336v-3.336h2.664v3.336h1.336v-3.336h2.664v3.336h1.336v-3.336h2.664v3.336h1.336v-3.336h2a.664.664 0 0 0 .664-.664v-2h3.336v-1.336h-3.336v-2.664h3.336v-1.336h-3.336v-2.664h3.336v-1.336h-3.336v-2.664h3.336v-1.336h-3.336V8.668Zm0 0" fill="rgb(83.137255%, 35.686275%, 2.745098%)" fill-rule="evenodd"/></svg>
